Papirus-GTK/24x24/apps/plexhometheater.svg

<svg height="24" width="24" xmlns="http://www.w3.org/2000/svg"><path d="m22 12a10 10 0 0 1 -10 10 10 10 0 0 1 -10-10 10 10 0 0 1  10-10 10 10 0 0 1  10 10z" fill="#4d4d4d"/><path d="m12 2c-5.5395 0-9.999 4.46-9.999 10 0 .08386-.002.166645 0 .25.1321-5.423 4.5435-9.75 9.999-9.75 5.4555 0 9.867 4.3268 9.999 9.75.002-.08335 0-.16614 0-.25 0-5.54-4.4595-10-9.999-10z" fill="#fff" opacity=".1"/><path d="m21.9895 11.709a10 10 0 0 1 -9.9895 9.791 10 10 0 0 1 -9.989-9.709 10 10 0 0 0 -.011.209 10 10 0 0 0  10 10 10 10 0 0 0  10-10 10 10 0 0 0 -.0105-.291z" opacity=".3"/><path d="m8 6.5h3l5 5.5-5 6.5h-3l5-6.5m-5-5.5" opacity=".2"/><path d="m8 6h3l5 5.5-5 6.5h-3l5-6.5m-5-5.5" fill="#ff9b2a"/></svg>

<?xml version="1.0" encoding="UTF-8" standalone="no"?>
<!-- Created with Inkscape (http://www.inkscape.org/) -->

<svg
   xmlns:dc="http://purl.org/dc/elements/1.1/"
   xmlns:cc="http://creativecommons.org/ns#"
   xmlns:rdf="http://www.w3.org/1999/02/22-rdf-syntax-ns#"
   xmlns:svg="http://www.w3.org/2000/svg"
   xmlns="http://www.w3.org/2000/svg"
   xmlns:sodipodi="http://sodipodi.sourceforge.net/DTD/sodipodi-0.dtd"
   xmlns:inkscape="http://www.inkscape.org/namespaces/inkscape"
   id="svg2817"
   height="24"
   width="24"
   version="1.0"
   inkscape:version="0.91 r13725"
   sodipodi:docname="plexhometheater.svg">
  <defs
     id="defs11" />
  <sodipodi:namedview
     pagecolor="#ffffff"
     bordercolor="#666666"
     borderopacity="1"
     objecttolerance="10"
     gridtolerance="10"
     guidetolerance="10"
     inkscape:pageopacity="0"
     inkscape:pageshadow="2"
     inkscape:window-width="1600"
     inkscape:window-height="849"
     id="namedview9"
     showgrid="false"
     inkscape:zoom="8.08"
     inkscape:cx="-8.7450495"
     inkscape:cy="12.456433"
     inkscape:window-x="0"
     inkscape:window-y="0"
     inkscape:window-maximized="1"
     inkscape:current-layer="svg2817" />
  <metadata
     id="metadata57">
    <rdf:RDF>
      <cc:Work
         rdf:about="">
        <dc:format>image/svg+xml</dc:format>
        <dc:type
           rdf:resource="http://purl.org/dc/dcmitype/StillImage" />
        <dc:title />
      </cc:Work>
    </rdf:RDF>
  </metadata>
  <path
     style="fill:#4d4d4d"
     inkscape:connector-curvature="0"
     id="path4207"
     d="M 22,12 A 10,10 0 0 1 12,22 10,10 0 0 1 2,12 10,10 0 0 1 12,2 10,10 0 0 1 22,12 Z" />
  <path
     style="opacity:0.1;fill:#ffffff"
     inkscape:connector-curvature="0"
     id="rect4063"
     d="M 12,2 C 6.4605,2 2.001,6.46 2.001,12 c 0,0.08386 -0.002,0.166645 0,0.25 C 2.1331,6.827 6.5445,2.5 12,2.5 c 5.4555,0 9.867,4.3268 9.999,9.75 0.002,-0.08335 0,-0.16614 0,-0.25 C 21.999,6.46 17.5395,2 12,2 Z" />
  <path
     style="opacity:0.3"
     inkscape:connector-curvature="0"
     id="path4202"
     d="M 21.9895,11.709 A 10,10 0 0 1 12,21.5 10,10 0 0 1 2.011,11.791 10,10 0 0 0 2,12 10,10 0 0 0 12,22 10,10 0 0 0 22,12 10,10 0 0 0 21.9895,11.709 Z" />
  <path
     style="opacity:0.2"
     inkscape:connector-curvature="0"
     id="path4251"
     d="m 8,6.5 3,0 5,5.5 -5,6.5 -3,0 5,-6.5 M 8,6.5" />
  <path
     style="fill:#ff9b2a"
     inkscape:connector-curvature="0"
     id="path4188"
     d="m 8,6 3,0 5,5.5 -5,6.5 -3,0 5,-6.5 M 8,6" />
</svg>
